X:41
T:Sunlight
C:François Champs
M:2/2
R:Reel
K:D
|: DAdf e2df | e2df edBA | DAdf e2de | faaf gfed |
   DAdf e2df | e2df edBd | AGFA dfed |1 cdec d4  :|2 cdec d2ef |
|: g2gf gfed | B2gf gfed | Affe fedB | A2fe fdef |
   g2gf gfed | B2gf gfed | AGFA dfed |1 cdec d2ef :|2 cdec d/d/dd2 ||

